Papirus/32x32/apps/kamoso.svg

<svg width="32" height="32" version="1" xmlns="http://www.w3.org/2000/svg">
 <path d="m16 24.7s8 2.1 8 3.5v1.4c0 0.7756-0.594667 1.4-1.333333 1.4h-13.333334c-0.7386666 0-1.3333333-0.6244-1.3333333-1.4v-1.4c0-1.4 8-3.5 8-3.5z" style="opacity:.2"/>
 <path d="m16 23.7s8 2.1 8 3.5v1.4c0 0.7756-0.594667 1.4-1.333333 1.4h-13.333334c-0.7386666 0-1.3333333-0.6244-1.3333333-1.4v-1.4c0-1.4 8-3.5 8-3.5z" style="fill:#4f4f4f"/>
 <circle cx="16" cy="15" r="13" style="opacity:.2"/>
 <circle cx="16" cy="14" r="13" style="fill:#8e8e8e"/>
 <circle transform="scale(1,-1)" cx="16" cy="-14" r="9" style="fill:#4f4f4f"/>
 <circle transform="scale(1,-1)" cx="16" cy="-15" r="7" style="opacity:.2"/>
 <circle transform="scale(1,-1)" cx="16" cy="-14" r="7" style="fill:#00b1c4"/>
 <circle cx="16" cy="15" r="4" style="opacity:.2"/>
 <circle cx="16" cy="14" r="4" style="fill:#70f4ff"/>
 <path d="M 15.939453,10 A 4,4 0 0 0 12,14 4,4 0 0 0 12.03125,14.496094 4,4 0 0 1 16,11 4,4 0 0 1 19.96875,14.503906 4,4 0 0 0 20,14 4,4 0 0 0 16,10 4,4 0 0 0 15.93945,10 Z" style="fill:#ffffff;opacity:.2"/>
 <path d="M 15.892578,1 A 13,13 0 0 0 3,14 13,13 0 0 0 3.0097656,14.503906 13,13 0 0 1 16,2 13,13 0 0 1 28.990234,14.496094 13,13 0 0 0 29,14 13,13 0 0 0 16,1 13,13 0 0 0 15.892578,1 Z" style="fill:#ffffff;opacity:.1"/>
</svg>

<svg xmlns="http://www.w3.org/2000/svg" width="32" height="32" version="1">
 <path style="opacity:0.2" d="M 16,24.7 C 16,24.7 24,26.8 24,28.2 V 29.6 C 24,30.376 23.405,31 22.667,31 H 9.333 C 8.595,31 8,30.376 8,29.6 V 28.2 C 8,26.8 16,24.7 16,24.7 Z"/>
 <path style="fill:#3f3f3f" d="M 16,23.7 C 16,23.7 24,25.8 24,27.2 V 28.6 C 24,29.376 23.405,30 22.667,30 H 9.333 C 8.595,30 8,29.376 8,28.6 V 27.2 C 8,25.8 16,23.7 16,23.7 Z"/>
 <circle style="opacity:0.2" cx="16" cy="15" r="13"/>
 <circle style="fill:#8e8e8e" cx="16" cy="14" r="13"/>
 <circle style="fill:#4f4f4f" cx="16" cy="14" r="9"/>
 <circle style="opacity:0.2" cx="16" cy="15" r="7"/>
 <circle style="fill:#00b1c4" cx="16" cy="14" r="7"/>
 <circle style="opacity:0.2" cx="16" cy="15" r="4"/>
 <circle style="fill:#70f4ff" cx="16" cy="14" r="4"/>
 <path style="fill:#ffffff;opacity:0.2" d="M 16 10 A 4 4 0 0 0 12 14 A 4 4 0 0 0 12.035 14.5 A 4 4 0 0 1 16 11 A 4 4 0 0 1 19.965 14.48 A 4 4 0 0 0 20 14 A 4 4 0 0 0 16 10 z"/>
 <path style="fill:#ffffff;opacity:0.2" d="M 16 1 A 13 13 0 0 0 3 14 A 13 13 0 0 0 3.0352 14.5 A 13 13 0 0 1 16 2 A 13 13 0 0 1 28.979 14.291 A 13 13 0 0 0 29 14 A 13 13 0 0 0 16 1 z"/>
</svg>
